X: 361
M: C
L: 1/8
K: Dmix
V: 1
f |\
d/d/d (.d.A) F>GAc | BGcG ECGE |\
|: f |\
defg a>baf | gecg ecge |
defg a>ba(g | f)de^c dDDf |\
defg a>baf | (g/a/g) (.c.g) ecge |\
fdge afb(g | f)de^c dD-D |]
V: 2 clef=bass middle=d
z |\
d2d2 D2D2 | G2G2 c2c2 |\
d2d2 d2d2 | A2A2 D2D :|\
|: z |\
d2d2 d2d2 | c2c2 c2c2 |
d2d2 d2d2 | A2A2 D2D2 |\
d2d2 d2d2 | c2c2 c2c2 |\
d2e2 f2g2 | a2a2 d2d |]

